X:89
T:Elfrida
T:Dance
S:John Moore's Book 2
Z:Transcribed by Edmund Spriggs 05/2021
%%VWML: Moore1-4494-p69-0
F:http://www.vwml.org/record/Moore2/4494/p69
M:6/8
N:"Da Capo" is partly illegible in the manuscript.
L:1/8
K:D
fef d2A|fef d2A|d2f d2f|a^ga e3|
fef d2A|fef d2A|d2f d2f|agf d3|]
cBA e2c|g2e ceA|d2e f2g|agf e3|
cBA e2c|g2e a2c|Bcd ef^g|a3 a"Da Capo"=ge|]

